flaticon/household/food-steamer.svg

<svg xmlns="http://www.w3.org/2000/svg" width="32" height="32" viewBox="0 0 24 24">
    <path d="M 20.398438 9.199219 L 20.398438 8.398438 L 21.199219 8.398438 C 21.421875 8.398438 21.601562 8.222656 21.601562 8 C 21.601562 7.777344 21.421875 7.601562 21.199219 7.601562 L 20.1875 7.601562 C 20.320312 7.371094 20.398438 7.109375 20.398438 6.828125 L 20.398438 2.398438 L 21.199219 2.398438 C 21.421875 2.398438 21.601562 2.222656 21.601562 2 C 21.601562 1.777344 21.421875 1.601562 21.199219 1.601562 L 19.988281 1.601562 C 19.925781 0.707031 19.1875 0 18.277344 0 L 5.722656 0 C 4.8125 0 4.074219 0.707031 4.011719 1.601562 L 2.800781 1.601562 C 2.578125 1.601562 2.398438 1.777344 2.398438 2 C 2.398438 2.222656 2.578125 2.398438 2.800781 2.398438 L 3.601562 2.398438 L 3.601562 6.828125 C 3.601562 7.109375 3.679688 7.371094 3.8125 7.601562 L 2.800781 7.601562 C 2.578125 7.601562 2.398438 7.777344 2.398438 8 C 2.398438 8.222656 2.578125 8.398438 2.800781 8.398438 L 3.601562 8.398438 L 3.601562 12.027344 C 3.601562 12.308594 3.679688 12.570312 3.8125 12.800781 L 2.800781 12.800781 C 2.578125 12.800781 2.398438 12.980469 2.398438 13.199219 C 2.398438 13.421875 2.578125 13.601562 2.800781 13.601562 L 3.601562 13.601562 L 3.601562 16.828125 C 3.601562 17.566406 4.113281 18.183594 4.800781 18.351562 L 4.800781 23.601562 C 4.800781 23.820312 4.980469 24 5.199219 24 L 18.800781 24 C 19.019531 24 19.199219 23.820312 19.199219 23.601562 L 19.199219 18.351562 C 19.886719 18.183594 20.398438 17.566406 20.398438 16.828125 L 20.398438 13.601562 L 21.199219 13.601562 C 21.421875 13.601562 21.601562 13.421875 21.601562 13.199219 C 21.601562 12.980469 21.421875 12.800781 21.199219 12.800781 L 20.1875 12.800781 C 20.320312 12.570312 20.398438 12.308594 20.398438 12.027344 Z M 18.828125 12.800781 L 5.171875 12.800781 C 4.746094 12.800781 4.398438 12.453125 4.398438 12.027344 L 4.398438 9.601562 L 19.601562 9.601562 L 19.601562 12.027344 C 19.601562 12.453125 19.253906 12.800781 18.828125 12.800781 Z M 4.398438 6.828125 L 4.398438 3.601562 L 19.601562 3.601562 L 19.601562 6.828125 C 19.601562 7.253906 19.253906 7.601562 18.828125 7.601562 L 5.171875 7.601562 C 4.746094 7.601562 4.398438 7.253906 4.398438 6.828125 Z M 5.722656 0.800781 L 18.277344 0.800781 C 18.746094 0.800781 19.132812 1.148438 19.191406 1.601562 L 4.808594 1.601562 C 4.867188 1.148438 5.253906 0.800781 5.722656 0.800781 Z M 19.601562 2.398438 L 19.601562 2.800781 L 4.398438 2.800781 L 4.398438 2.398438 Z M 5.171875 8.398438 L 19.601562 8.398438 L 19.601562 8.800781 L 4.398438 8.800781 L 4.398438 8.398438 Z M 18.398438 20.109375 C 16.910156 19.625 15.136719 19.324219 13.226562 19.234375 C 12.886719 18.964844 12.464844 18.800781 12 18.800781 C 11.535156 18.800781 11.113281 18.964844 10.773438 19.234375 C 8.863281 19.324219 7.089844 19.625 5.601562 20.109375 L 5.601562 18.398438 L 18.398438 18.398438 Z M 10.824219 20.554688 C 10.828125 20.546875 10.832031 20.542969 10.832031 20.535156 C 10.886719 20.300781 11.007812 20.089844 11.191406 19.921875 C 11.191406 19.917969 11.195312 19.917969 11.195312 19.914062 C 11.410156 19.722656 11.691406 19.601562 12 19.601562 C 12.183594 19.601562 12.359375 19.644531 12.515625 19.71875 L 11.71875 20.515625 C 11.5625 20.671875 11.5625 20.925781 11.71875 21.082031 C 11.796875 21.160156 11.898438 21.199219 12 21.199219 C 12.101562 21.199219 12.203125 21.160156 12.28125 21.082031 L 13.078125 20.285156 C 13.117188 20.367188 13.148438 20.449219 13.167969 20.535156 C 13.167969 20.542969 13.171875 20.546875 13.175781 20.554688 C 13.191406 20.632812 13.199219 20.714844 13.199219 20.800781 C 13.199219 21.460938 12.660156 22 12 22 C 11.339844 22 10.800781 21.460938 10.800781 20.800781 C 10.800781 20.714844 10.808594 20.632812 10.824219 20.554688 Z M 18.398438 23.199219 L 5.601562 23.199219 L 5.601562 20.949219 C 6.902344 20.5 8.453125 20.199219 10.140625 20.070312 C 10.125 20.109375 10.117188 20.148438 10.105469 20.1875 C 10.082031 20.261719 10.054688 20.339844 10.039062 20.417969 C 10.011719 20.542969 10 20.671875 10 20.800781 C 10 21.902344 10.898438 22.800781 12 22.800781 C 13.101562 22.800781 14 21.902344 14 20.800781 C 14 20.671875 13.988281 20.542969 13.960938 20.417969 C 13.945312 20.339844 13.917969 20.261719 13.894531 20.1875 C 13.882812 20.148438 13.875 20.109375 13.859375 20.070312 C 15.546875 20.199219 17.097656 20.5 18.402344 20.949219 L 18.402344 23.199219 Z M 18.828125 17.601562 L 5.171875 17.601562 C 4.746094 17.601562 4.398438 17.253906 4.398438 16.828125 L 4.398438 14.800781 L 19.601562 14.800781 L 19.601562 16.828125 C 19.601562 17.253906 19.253906 17.601562 18.828125 17.601562 Z M 19.601562 14 L 4.398438 14 L 4.398438 13.601562 L 19.601562 13.601562 Z M 19.601562 14"/>
</svg>

<svg xmlns="http://www.w3.org/2000/svg" width="32" height="32" viewBox="0 0 24 24">
    <path d="M20.398 9.2v-.802h.801a.398.398 0 1 0 0-.796h-1.012c.133-.23.211-.493.211-.774v-4.43h.801a.398.398 0 1 0 0-.796h-1.21A1.717 1.717 0 0 0 18.276 0H5.723c-.91 0-1.649.707-1.711 1.602H2.8a.398.398 0 1 0 0 .796h.8v4.43c0 .281.079.543.212.774H2.8a.398.398 0 1 0 0 .796h.8v3.63c0 .28.079.542.212.773H2.8a.401.401 0 1 0 0 .8h.8v3.227a1.57 1.57 0 0 0 1.2 1.524v5.25a.4.4 0 0 0 .398.398h13.602a.4.4 0 0 0 .398-.398v-5.25a1.57 1.57 0 0 0 1.2-1.524v-3.226h.8a.401.401 0 0 0 0-.8l-1.012-.001c.133-.23.211-.492.211-.774zm-1.57 3.6H5.172a.775.775 0 0 1-.774-.773V9.602h15.204v2.425a.775.775 0 0 1-.774.774zM4.398 6.829V3.602h15.204v3.226a.775.775 0 0 1-.774.774H5.172a.775.775 0 0 1-.774-.774zM5.723.801h12.554a.92.92 0 0 1 .914.8H4.81a.92.92 0 0 1 .914-.8zm13.879 1.597v.403H4.398v-.403zm-14.43 6h14.43v.403H4.398v-.403zM18.398 20.11c-1.488-.484-3.261-.785-5.171-.875A1.962 1.962 0 0 0 12 18.801c-.465 0-.887.164-1.227.433-1.91.09-3.683.391-5.171.875V18.4h12.796zm-7.574.446c.004-.008.008-.012.008-.02a1.19 1.19 0 0 1 .36-.613c0-.004.003-.004.003-.008a1.21 1.21 0 0 1 .805-.312c.184 0 .36.043.516.117l-.797.797a.4.4 0 0 0 .281.683c.102 0 .203-.039.281-.117l.797-.797c.04.082.07.164.09.25 0 .008.004.012.008.02A1.202 1.202 0 0 1 12 22a1.202 1.202 0 0 1-1.176-1.445zm7.574 2.644H5.602v-2.25c1.3-.449 2.851-.75 4.539-.879-.016.04-.024.078-.036.117-.023.075-.05.153-.066.231-.027.125-.039.254-.039.383 0 1.101.898 2 2 2 1.102 0 2-.899 2-2 0-.13-.012-.258-.04-.383-.015-.078-.042-.156-.065-.23-.012-.04-.02-.079-.036-.118 1.688.13 3.239.43 4.543.88v2.25zm.43-5.597H5.172a.775.775 0 0 1-.774-.774v-2.027h15.204v2.027a.775.775 0 0 1-.774.774zM19.602 14H4.398v-.398h15.204zm0 0"/>
</svg>
